**harm	**harte	**silbe	**silbe	**rhyme	**timestamp	**phrase	**leadinstrument	**kern
*M4/4	*M4/4	*	*	*	*	*	*	*
*	*	*	*	*	*	*	*	*
*	*	*	*	*	*	*	*	*
*B-:	*B-:	*	*	*	*	*	*	*B-:
*	*	*	*	*	*	*	*	*
*	*	*	*	*	*	*	*	*
1r;	N	.	.	.	0	.	r	1r;
=1	=1	=1	=1	=1	=1	=1	=1	=1
*>Letter>A	*>Letter>A	*>Letter>A	*>Letter>A	*>Letter>A	*>Letter>A	*>Letter>A	*>Letter>A	*>Letter>A
*>Label>Intro	*>Label>Intro	*>Label>Intro	*>Label>Intro	*>Label>Intro	*>Label>Intro	*>Label>Intro	*>Label>Intro	*>Label>Intro
1I	B-:maj	.	.	.	0.325	newline	guitar	1B- 1dd 1ff
=2	=2	=2	=2	=2	=2	=2	=2	=2
1I	B-:maj	.	.	.	3.546	.	guitar	1B- 1dd 1ff
=3	=3	=3	=3	=3	=3	=3	=3	=3
*>Letter>B	*>Letter>B	*>Letter>B	*>Letter>B	*>Letter>B	*>Letter>B	*>Letter>B	*>Letter>B	*>Letter>B
*>Label>Verse	*>Label>Verse	*>Label>Verse	*>Label>Verse	*>Label>Verse	*>Label>Verse	*>Label>Verse	*>Label>Verse	*>Label>Verse
1I	B-:maj	Some-	.	.	6.768	newline	voice	1B- 1dd 1ff
.	.	-times	.	.	.	.	.	.
.	.	_	.	.	.	.	.	.
.	.	when	.	.	.	.	.	.
.	.	I'm	.	.	.	.	.	.
.	.	down	.	.	.	.	.	.
.	.	and	.	.	.	.	.	.
.	.	all	.	.	.	.	.	.
.	.	a-	.	.	.	.	.	.
.	.	-lone	.	A	.	.	.	.
=4	=4	=4	=4	=4	=4	=4	=4	=4
1III7	D:7	_	.	.	9.853	.	voice	1D 1f# 1a 1cc
.	.	.	.	.	.	.	.	.
.	.	ooh	.	.	.	.	.	.
.	.	_	.	.	.	.	.	.
.	.	_	.	.	.	.	.	.
=5	=5	=5	=5	=5	=5	=5	=5	=5
1vi	G:min	_	.	.	12.938	.	voice	1G 1b- 1dd
.	.	Just	.	.	.	.	.	.
.	.	like	.	.	.	.	.	.
.	.	a	.	.	.	.	.	.
.	.	child	.	.	.	.	.	.
.	.	_	.	.	.	.	.	.
.	.	wit-	.	.	.	.	.	.
.	.	-hout	.	.	.	.	.	.
.	.	a	.	.	.	.	.	.
.	.	home	.	A	.	.	.	.
=6	=6	=6	=6	=6	=6	=6	=6	=6
1Im7	B-:7	_	.	.	16.023	.	voice	1B- 1dd 1ff 1aa
.	.	.	.	.	.	.	.	.
.	.	.	.	.	.	.	.	.
.	.	.	.	.	.	.	.	.
.	.	The	.	.	.	.	.	.
=7	=7	=7	=7	=7	=7	=7	=7	=7
1IV	E-:maj	love	.	.	19.108	newline	voice	1E- 1g 1b-
.	.	you	.	.	.	.	.	.
.	.	give	.	.	.	.	.	.
.	.	_	.	.	.	.	.	.
.	.	me	.	.	.	.	.	.
.	.	keeps	.	.	.	.	.	.
.	.	_	.	.	.	.	.	.
.	.	me	.	.	.	.	.	.
.	.	_	.	.	.	.	.	.
.	.	han-	.	.	.	.	.	.
.	.	-gin'	.	.	.	.	.	.
.	.	on	.	.	.	.	.	.
=8	=8	=8	=8	=8	=8	=8	=8	=8
2I	B-:maj	_	.	.	22.177	.	voice	2B- 2dd 2ff
.	.	.	.	.	.	.	.	.
.	.	Awww	.	.	.	.	.	.
2vi	G:min	ho-	.	.	23.711	.	voice	2G 2b- 2dd
.	.	-ney	.	.	.	.	.	.
.	.	_	.	.	.	.	.	.
=9	=9	=9	=9	=9	=9	=9	=9	=9
1II7	C:7	.	.	.	25.245	.	voice	1C 1e 1g 1b-
.	.	all	.	.	.	.	.	.
.	.	I	.	.	.	.	.	.
.	.	e-	.	.	.	.	.	.
.	.	-ver	.	.	.	.	.	.
.	.	need	.	.	.	.	.	.
.	.	_	.	.	.	.	.	.
.	.	is	.	.	.	.	.	.
.	.	you	.	.	.	.	.	.
=10	=10	=10	=10	=10	=10	=10	=10	=10
2V7	F:7	_	.	.	28.313	.	voice	2F 2a 2cc 2ee-
.	.	.	.	.	.	.	.	.
4V	F:sus4(b7)	.	.	.	29.847	.	voice	2F 2a 2cc
4V7	F:7	.	.	.	30.614	.	voice	4F 4a 4cc 4ee-
=11	=11	=11	=11	=11	=11	=11	=11	=11
1I	B-:maj	.	.	.	31.381	newline	voice	1B- 1dd 1ff
.	.	.	You're	.	.	.	.	.
.	.	.	my	.	.	.	.	.
.	.	.	first	.	.	.	.	.
.	.	.	love,	.	.	.	.	.
.	.	.	you're	.	.	.	.	.
.	.	.	my	.	.	.	.	.
.	.	.	last	B	.	.	.	.
=12	=12	=12	=12	=12	=12	=12	=12	=12
1III7	D:7	.	_	.	34.438	.	voice	1D 1f# 1a 1cc
.	.	.	_	.	.	.	.	.
.	.	.	.	.	.	.	.	.
.	.	.	.	.	.	.	.	.
=13	=13	=13	=13	=13	=13	=13	=13	=13
1vi	G:min	.	.	.	37.495	.	voice	1G 1b- 1dd
.	.	.	you're	.	.	.	.	.
.	.	.	_	.	.	.	.	.
.	.	.	my	.	.	.	.	.
.	.	.	fu-	.	.	.	.	.
.	.	.	_	.	.	.	.	.
.	.	.	-ture	.	.	.	.	.
.	.	.	you're	.	.	.	.	.
.	.	.	_	.	.	.	.	.
.	.	.	my	.	.	.	.	.
=14	=14	=14	=14	=14	=14	=14	=14	=14
1Im7	B-:7	.	past	B	40.551	.	voice	1B- 1dd 1ff 1aa
.	.	.	_	.	.	.	.	.
.	.	.	.	.	.	.	.	.
.	.	.	.	.	.	.	.	.
=15	=15	=15	=15	=15	=15	=15	=15	=15
1IV	E-:maj	.	.	.	43.608	newline	voice	1E- 1g 1b-
.	.	.	And	.	.	.	.	.
.	.	.	lo-	.	.	.	.	.
.	.	.	-ving	.	.	.	.	.
.	.	.	you	.	.	.	.	.
.	.	.	is	.	.	.	.	.
.	.	.	all	.	.	.	.	.
.	.	.	I	.	.	.	.	.
=16	=16	=16	=16	=16	=16	=16	=16	=16
2I	B-:maj	.	ask	B	46.638	.	voice	2B- 2dd 2ff
.	.	.	.	.	.	.	.	.
.	.	.	.	.	.	.	.	.
.	.	.	Ho-	.	.	.	.	.
2vi	G:min	.	_	.	48.154	.	voice	2G 2b- 2dd
.	.	.	-ney	.	.	.	.	.
.	.	.	.	.	.	.	.	.
=17	=17	=17	=17	=17	=17	=17	=17	=17
2II7	C:7	.	.	.	49.669	.	voice	2C 2e 2g 2b-
.	.	.	all	.	.	.	.	.
.	.	.	I	.	.	.	.	.
2V7	F:7	.	e-	.	51.184	.	voice	2F 2a 2cc 2ee-
.	.	.	-ver	.	.	.	.	.
.	.	.	need	.	.	.	.	.
.	.	.	_	.	.	.	.	.
.	.	.	is	.	.	.	.	.
=18	=18	=18	=18	=18	=18	=18	=18	=18
1I	B-:maj	.	you	.	52.699	.	voice	1B- 1dd 1ff
.	.	.	.	.	.	.	.	.
.	.	.	.	.	.	.	.	.
=19	=19	=19	=19	=19	=19	=19	=19	=19
*>Letter>C	*>Letter>C	*>Letter>C	*>Letter>C	*>Letter>C	*>Letter>C	*>Letter>C	*>Letter>C	*>Letter>C
*>Label>Bridge	*>Label>Bridge	*>Label>Bridge	*>Label>Bridge	*>Label>Bridge	*>Label>Bridge	*>Label>Bridge	*>Label>Bridge	*>Label>Bridge
1IV	E-:maj	.	.	.	55.73	newline	voice	1E- 1g 1b-
.	.	Win-	.	.	.	.	.	.
.	.	-ters	.	.	.	.	.	.
.	.	come	.	.	.	.	.	.
.	.	_	.	.	.	.	.	.
.	.	and	.	.	.	.	.	.
.	.	they	.	.	.	.	.	.
.	.	go	.	A	.	.	.	.
=20	=20	=20	=20	=20	=20	=20	=20	=20
1V	F:maj	_	.	.	58.752	.	voice	1F 1a 1cc
.	.	.	.	.	.	.	.	.
.	.	.	.	.	.	.	.	.
=21	=21	=21	=21	=21	=21	=21	=21	=21
1IV	E-:maj	.	.	.	61.774	.	voice	1E- 1g 1b-
.	.	And	.	.	.	.	.	.
.	.	uh	.	.	.	.	.	.
.	.	we	.	.	.	.	.	.
.	.	watch	.	.	.	.	.	.
.	.	_	.	.	.	.	.	.
.	.	the	.	.	.	.	.	.
.	.	mel-	.	.	.	.	.	.
.	.	_	.	.	.	.	.	.
.	.	-ting	.	.	.	.	.	.
=22	=22	=22	=22	=22	=22	=22	=22	=22
1iii7	D:min7	_	.	.	64.796	.	voice	1D 1f 1a 1cc
.	.	snow	.	A	.	.	.	.
.	.	_	.	.	.	.	.	.
.	.	_	.	.	.	.	.	.
.	.	_	.	.	.	.	.	.
.	.	.	.	.	.	.	.	.
=23	=23	=23	=23	=23	=23	=23	=23	=23
1IV	E-:maj	.	.	.	67.818	newline	voice	1E- 1g 1b-
.	.	Sure	.	.	.	.	.	.
.	.	as	.	.	.	.	.	.
.	.	sum-	.	.	.	.	.	.
.	.	-mer	.	.	.	.	.	.
.	.	fol-	.	.	.	.	.	.
.	.	_	.	.	.	.	.	.
.	.	-lows	.	A	.	.	.	.
=24	=24	=24	=24	=24	=24	=24	=24	=24
4I	B-:maj	spring	.	C	71.691	.	voice	4B- 4dd 4ff
.	.	All	.	.	.	.	.	.
4Vb	F:maj/3	_	.	.	72.66	.	voice	4f 4A 4cc
.	.	the	.	.	.	.	.	.
.	.	things	.	C	.	.	.	.
4vi	G:min	_	.	.	73.628	.	voice	4G 4b- 4dd
.	.	you	.	.	.	.	.	.
.	.	do	.	.	.	.	.	.
4V	F:maj	_	.	.	74.596	.	voice	4F 4a 4cc
=25	=25	=25	=25	=25	=25	=25	=25	=25
4IV	E-:maj	.	.	.	75.565	.	voice	4E- 4g 4b-
.	.	Give	.	.	.	.	.	.
4IVd	E-:maj/7	me	.	.	76.533	.	voice	4e- 4g 4b-
.	.	a	.	.	.	.	.	.
.	.	re-	.	.	.	.	.	.
2ii	C:sus4(b7)	_	.	.	77.502	.	voice	2C 2e- 2g
.	.	-ason	.	.	.	.	.	.
.	.	to	.	.	.	.	.	.
.	.	built	.	.	.	.	.	.
.	.	my	.	.	.	.	.	.
=26	=26	=26	=26	=26	=26	=26	=26	=26
1V	F:maj	world	.	.	79.438	.	voice	1F 1a 1cc
.	.	a-	.	.	.	.	.	.
.	.	_	.	.	.	.	.	.
.	.	-round	.	.	.	.	.	.
.	.	you	.	.	.	.	.	.
.	.	_	.	.	.	.	.	.
.	.	_	.	.	.	.	.	.
=27	=27	=27	=27	=27	=27	=27	=27	=27
*>Letter>B	*>Letter>B	*>Letter>B	*>Letter>B	*>Letter>B	*>Letter>B	*>Letter>B	*>Letter>B	*>Letter>B
*>Label>Verse	*>Label>Verse	*>Label>Verse	*>Label>Verse	*>Label>Verse	*>Label>Verse	*>Label>Verse	*>Label>Verse	*>Label>Verse
1I	B-:maj	Some-	Some-	.	83.312	newline	voice	1B- 1dd 1ff
.	.	-men	-men	.	.	.	.	.
.	.	fo-	fo-	.	.	.	.	.
.	.	-llow	-llow	.	.	.	.	.
.	.	rain-	rain-	.	.	.	.	.
.	.	_	_	.	.	.	.	.
.	.	-bows	-bows	.	.	.	.	.
.	.	I	I	.	.	.	.	.
.	.	am	am	.	.	.	.	.
.	.	told	told	A	.	.	.	.
=28	=28	=28	=28	=28	=28	=28	=28	=28
1III7	D:7	_	_	.	86.355	.	voice	1D 1f# 1a 1cc
.	.	.	.	.	.	.	.	.
.	.	.	.	.	.	.	.	.
=29	=29	=29	=29	=29	=29	=29	=29	=29
1vi	G:min	Some	Some	.	89.397	.	voice	1G 1b- 1dd
.	.	men	men	.	.	.	.	.
.	.	search	search	.	.	.	.	.
.	.	for	for	.	.	.	.	.
.	.	sil-	sil-	.	.	.	.	.
.	.	-ver,	-ver,	.	.	.	.	.
.	.	some	some	.	.	.	.	.
.	.	_	_	.	.	.	.	.
.	.	for	for	.	.	.	.	.
.	.	gold	gold	A	.	.	.	.
=30	=30	=30	=30	=30	=30	=30	=30	=30
1Im7	B-:7	_	_	.	92.44	.	voice	1B- 1dd 1ff 1aa
.	.	.	.	.	.	.	.	.
.	.	.	.	.	.	.	.	.
=31	=31	=31	=31	=31	=31	=31	=31	=31
1IV	E-:maj	.	I	.	95.483	newline	voice	1E- 1g 1b-
.	.	.	have	.	.	.	.	.
.	.	.	found	.	.	.	.	.
.	.	.	my	.	.	.	.	.
.	.	.	trea-	.	.	.	.	.
.	.	.	-sure	.	.	.	.	.
.	.	.	In	.	.	.	.	.
.	.	.	_	.	.	.	.	.
.	.	.	your	.	.	.	.	.
=32	=32	=32	=32	=32	=32	=32	=32	=32
2I	B-:maj	.	soul,	A	98.496	.	voice	2B- 2dd 2ff
.	.	.	.	.	.	.	.	.
.	.	.	.	.	.	.	.	.
2vi	G:min	.	ho-	.	100.002	.	voice	2G 2b- 2dd
.	.	.	-ney	.	.	.	.	.
.	.	.	.	.	.	.	.	.
=33	=33	=33	=33	=33	=33	=33	=33	=33
1II7	C:7	.	.	.	101.508	.	voice	1C 1e 1g 1b-
.	.	.	all	.	.	.	.	.
.	.	.	I	.	.	.	.	.
.	.	.	e-	.	.	.	.	.
.	.	.	-ver	.	.	.	.	.
.	.	.	need	.	.	.	.	.
.	.	.	_	.	.	.	.	.
.	.	.	_	.	.	.	.	.
=34	=34	=34	=34	=34	=34	=34	=34	=34
2V7	F:7	.	you	.	104.521	.	voice	2F 2a 2cc 2ee-
.	.	.	.	.	.	.	.	.
4V	F:sus4(b7)	.	.	.	106.028	.	voice	2F 2a 2cc
4V7	F:7	.	.	.	106.781	.	voice	4F 4a 4cc 4ee-
=35	=35	=35	=35	=35	=35	=35	=35	=35
1I	B-:maj	With-	With-	.	107.534	newline	voice	1B- 1dd 1ff
.	.	-out	-out	.	.	.	.	.
.	.	love	love	.	.	.	.	.
.	.	_	_	.	.	.	.	.
.	.	I'd	I'd	.	.	.	.	.
.	.	ne-	ne-	.	.	.	.	.
.	.	-ver	-ver	.	.	.	.	.
.	.	find	find	.	.	.	.	.
.	.	_	_	.	.	.	.	.
.	.	the	the	.	.	.	.	.
.	.	way	way	D	.	.	.	.
=36	=36	=36	=36	=36	=36	=36	=36	=36
1III7	D:7	_	_	.	110.565	.	voice	1D 1f# 1a 1cc
.	.	.	.	.	.	.	.	.
.	.	.	.	.	.	.	.	.
.	.	.	.	.	.	.	.	.
.	.	Through	Through	.	.	.	.	.
=37	=37	=37	=37	=37	=37	=37	=37	=37
1vi	G:min	ups	ups	.	113.596	.	voice	1G 1b- 1dd
.	.	and	and	.	.	.	.	.
.	.	downs	downs	.	.	.	.	.
.	.	of	of	.	.	.	.	.
.	.	e-	e-	.	.	.	.	.
.	.	_	_	.	.	.	.	.
.	.	-v'ry	-v'ry	.	.	.	.	.
.	.	sing-	sing-	.	.	.	.	.
.	.	_	_	.	.	.	.	.
.	.	-le	-le	.	.	.	.	.
.	.	day	day	D	.	.	.	.
=38	=38	=38	=38	=38	=38	=38	=38	=38
1Im7	B-:7	_	_	.	116.627	.	voice	1B- 1dd 1ff 1aa
.	.	.	.	.	.	.	.	.
.	.	.	.	.	.	.	.	.
.	.	.	.	.	.	.	.	.
=39	=39	=39	=39	=39	=39	=39	=39	=39
1IV	E-:maj	I	.	.	119.657	newline	voice	1E- 1g 1b-
.	.	won't	.	.	.	.	.	.
.	.	sleep	.	.	.	.	.	.
.	.	at	.	.	.	.	.	.
.	.	night	.	.	.	.	.	.
.	.	_	.	.	.	.	.	.
.	.	un-	.	.	.	.	.	.
.	.	-til	.	.	.	.	.	.
.	.	_	.	.	.	.	.	.
.	.	you	.	.	.	.	.	.
.	.	say,	.	D	.	.	.	.
=40	=40	=40	=40	=40	=40	=40	=40	=40
2I	B-:maj	_	.	.	122.704	.	voice	2B- 2dd 2ff
.	.	.	.	.	.	.	.	.
.	.	my	.	.	.	.	.	.
2vi	G:min	ho-	.	.	124.227	.	voice	2G 2b- 2dd
.	.	-ney	.	.	.	.	.	.
.	.	_	.	.	.	.	.	.
=41	=41	=41	=41	=41	=41	=41	=41	=41
2II7	C:7	.	.	.	125.75	.	voice	2C 2e 2g 2b-
.	.	All	.	.	.	.	.	.
.	.	I	.	.	.	.	.	.
2V7	F:7	e-	.	.	127.273	.	voice	2F 2a 2cc 2ee-
.	.	-ver	.	.	.	.	.	.
.	.	need	.	.	.	.	.	.
.	.	_	.	.	.	.	.	.
.	.	is	.	.	.	.	.	.
.	.	you	.	.	.	.	.	.
=42	=42	=42	=42	=42	=42	=42	=42	=42
*>Letter>A	*>Letter>A	*>Letter>A	*>Letter>A	*>Letter>A	*>Letter>A	*>Letter>A	*>Letter>A	*>Letter>A
*>Label>Trans	*>Label>Trans	*>Label>Trans	*>Label>Trans	*>Label>Trans	*>Label>Trans	*>Label>Trans	*>Label>Trans	*>Label>Trans
1I	B-:maj	_	.	.	128.796	->newline	guitar	1B- 1dd 1ff
.	.	.	.	.	.	.	.	.
.	.	.	.	.	.	.	.	.
=43	=43	=43	=43	=43	=43	=43	=43	=43
1I	B-:maj	.	.	.	131.964	.	guitar	1B- 1dd 1ff
=44	=44	=44	=44	=44	=44	=44	=44	=44
*>Letter>B	*>Letter>B	*>Letter>B	*>Letter>B	*>Letter>B	*>Letter>B	*>Letter>B	*>Letter>B	*>Letter>B
*>Label>Fadeout	*>Label>Fadeout	*>Label>Fadeout	*>Label>Fadeout	*>Label>Fadeout	*>Label>Fadeout	*>Label>Fadeout	*>Label>Fadeout	*>Label>Fadeout
1I	B-:maj	.	.	.	135.131	newline	voice	1B- 1dd 1ff
.	.	.	Tah	.	.	.	.	.
.	.	.	tah-	.	.	.	.	.
.	.	.	-tah	.	.	.	.	.
.	.	.	tah-	.	.	.	.	.
.	.	.	_	.	.	.	.	.
.	.	.	-tah	.	.	.	.	.
.	.	.	tah	.	.	.	.	.
.	.	.	tah	.	.	.	.	.
.	.	.	tah	.	.	.	.	.
=45	=45	=45	=45	=45	=45	=45	=45	=45
1III7	D:7	.	_	.	138.175	.	voice	1D 1f# 1a 1cc
.	.	.	.	.	.	.	.	.
.	.	Oh	.	.	.	.	.	.
.	.	ho-	.	.	.	.	.	.
.	.	-ney	.	.	.	.	.	.
.	.	ho-	.	.	.	.	.	.
.	.	-ney	.	.	.	.	.	.
=46	=46	=46	=46	=46	=46	=46	=46	=46
1vi	G:min	.	.	.	141.218	.	voice	1G 1b- 1dd
.	.	.	tah	.	.	.	.	.
.	.	.	tah	.	.	.	.	.
.	.	.	tah	.	.	.	.	.
.	.	.	tah	.	.	.	.	.
.	.	.	_	.	.	.	.	.
.	.	.	tah	.	.	.	.	.
.	.	.	tah	.	.	.	.	.
.	.	.	tah	.	.	.	.	.
.	.	.	tah	.	.	.	.	.
=47	=47	=47	=47	=47	=47	=47	=47	=47
1Im7	B-:7	.	_	.	144.262	.	voice	1B- 1dd 1ff 1aa
.	.	My	.	.	.	.	.	.
.	.	ho-	.	.	.	.	.	.
.	.	-ney	.	.	.	.	.	.
.	.	_	.	.	.	.	.	.
.	.	ho-	.	.	.	.	.	.
.	.	-ney	.	.	.	.	.	.
.	.	_	.	.	.	.	.	.
=48	=48	=48	=48	=48	=48	=48	=48	=48
1IV	E-:maj	.	.	.	147.306	newline	voice	1E- 1g 1b-
.	.	sleep	.	.	.	.	.	.
.	.	at	.	.	.	.	.	.
.	.	night	.	.	.	.	.	.
.	.	_	.	.	.	.	.	.
.	.	un-	.	.	.	.	.	.
.	.	-til	.	.	.	.	.	.
.	.	_	.	.	.	.	.	.
.	.	you	.	.	.	.	.	.
.	.	say,	.	.	.	.	.	.
=49	=49	=49	=49	=49	=49	=49	=49	=49
2I	B-:maj	_	.	.	149.86	.	voice	2B- 2dd 2ff
.	.	.	.	.	.	.	.	.
.	.	my	.	.	.	.	.	.
2vi	G:min	ho-	.	.	151.138	.	voice	2G 2b- 2dd
.	.	-ney	.	.	.	.	.	.
.	.	_	.	.	.	.	.	.
=50	=50	=50	=50	=50	=50	=50	=50	=50
1II7	C:7	.	.	.	152.415	.	voice	1C 1e 1g 1b-
.	.	all	.	.	.	.	.	.
.	.	I	.	.	.	.	.	.
.	.	e-	.	.	.	.	.	.
.	.	-ver	.	.	.	.	.	.
.	.	need	.	.	.	.	.	.
.	.	_	.	.	.	.	.	.
.	.	_	.	.	.	.	.	.
=51	=51	=51	=51	=51	=51	=51	=51	=51
2V7	F:7	you	.	.	154.97	.	voice	2F 2a 2cc 2ee-
.	.	.	.	.	.	.	.	.
4V	F:sus4(b7)	.	.	.	156.247	.	voice	2F 2a 2cc
4V7	F:7	.	.	.	156.886	.	voice	4F 4a 4cc 4ee-
1r;	N	.	.	.	157.524	.	r	1r;
1r;	N	.	.	.	159.634	.	r	1r;
*-	*-	*-	*-	*-	*-	*-	*-	*-
!!!BillboardChartDate: 1971/12/11
!!!BillboardPeak: 7
!!!BillboardWeeksOnChart: 15
!!!COC: Sonny & Cher
!!!ENC: Nathaniel Condit-Schultz
!!!EST: Awating manual error checking and editing.
!!!OTL: All I Ever Need Is You
!!!RDF**harte: Chris Harte's syntax, used by MIREX
!!!RDF**harmony: **recip + pitch class of root + harmonic quality
!!!RDF**leadinstrument: original McGill primary instrumentation annotation
!!!RDF**phrase: newline = linebreak in original McGill transcription
!!!RDF**timestamp: McGill audio timestamp in seconds
!!!RDT: 2017/01/12/
!!!SampleActualRank: 8
!!!SampleID#: 0950
!!!SampleTargetRank: 8
!!!MBID: decfc350-f2b7-406b-8a71-8a6426b7e9cc
